#N Boxed Chaos
#O shanepkearney
#C The Neon Frame packed with random soup. It burns white-hot, breaks
#C through the walls into an octagon, and spreads into a churning diamond
#C before it thins out.
#C Added: 2026-09-23 by @shanepkearney
#CXRLE Pos=120,150
x = 238, y = 130, rule = B3/S23:T512,384
200o$o198bo$o198bo$o198bo$o198bo$o4bo2bobob2o4bo7bo5b2o5bobo3bob2o2bo
2bobo4bo3bo10bo12bo2bo5bo4bo4bo3bo4bo3bobo3bo11bo12bo4bobo3bo2bobo4b2o
5bo2bo15bo$o7bo2bo4b2o2bo2bo2b2ob2o2b2o7bo3b2o6b2o5bo5bo9bo2bo3b2obobo
2bo2bob3o2b2obobobo2bo5bo8b2o5bo2bo7bo2bo2bobo3bo2b2o4bo4bo4bo10bo11bo
$o5bo2bo5bo16bob2o4bo6bo13bo2b2o4bo4bo2bo7bobobo4bo2bo8b2o9bobo3bobo6b
2o8b2o5bobo6b2o4bo6bo6bo2bo3bobo3b3o4bo$o4bobo5bo6bo7bo7bobo5bobo17bo
2bo4bo3bo14b4o11bo2b2o8bo8bo2bo2bo2bo4b2obobo4bo6bo2bobo2bo4b2o6bobo2b
o8bo4bo6b2o4b2o4b2o4b2o4b2o4b2o$o12bo6bobo12b2o3b3o6b3o6bo6bo2bobo4bo
4bo2bob2o2bo2bo5b2ob2o2bo3bo3bo4b2o7bo6bo4b2o3bobo7bo6b2o2bobobo11bobo
bo6bo6bo6b2o4b2o4b2o4b2o4b2o4b2o$o5bo3bo6bo9bo6bo3b2o3bo3bo3bo3b4o2b2o
6b3o4bobo2bo3bo25bo2bo2bo6bobobo6bobo5bo6bo2b2obo2bo6bo3bo3bo8bo10bo4b
o$o10bobo9b2o7bo2b2o5bo4bo23b4o9bo4bo3bo8bo5bo6bo10bo2bob2o7bo7bob2ob
3o6b3o2b3obobo2bo3bo5b3ob2o2bo4bo$o10b2o2bo2bo2bobo7b4obobo5bo7bo8bo3b
o7b2o5bo3bo2b2o6b3obo3bo8bobo9bo2b2obo4bo9bo4bo7bo3bo10b3o2b3o18bo32bo
$o9bob2obo3b2o3bob2o13bo17bo5bo3bo3bo7b3o3bo7bo11bob4o2b4ob2o6b2o2b2ob
o4bo3b2o2bo8b2o2bobobo6bo5bo6b3o3bobo5bo32bobo$o4bo2bo14bo4bobo8bo3bob
obo6bo6b2o3b3o6bob2o6bo13b4o4b3o2bo17bo9bo4bo2bob2o10bo3bobo3b2o20bo4b
3o30b2o$o4bobo3bo4bob2o6b4o3bo3bo3b3obo2bo2bo8bo6bo2bo3bo3b5o2bo6bo7b
5o3b2obobobob2o3bo3b2o2bobobo9bo6bo10bo12bobo3bo6bo2bo7b3o$o8bobob2o2b
2obo2bo5bo4bo8bo20b2obo3bob2o4b2o5bo5bo4bo6bo5b2obo3bo3bo4b2obobo3bobo
3bobo2bobo3b2o2bo4bobo5bobo2bo2b2o5bo8bo5bo$o6b2o2bo7bobo5bo4bo9bo22bo
5bob2o11b3o2bo3b4o4bo4bo4bo6bo3bo9b2o5bo6b2obo4bob2o10bo7bo7bobobo8bo$
o4bob2o3bo9bo2bobob2o4bo5bo2bobo5bo8bo3bo10bo2bo2bo4b3o4bobo4bo9b2o5bo
bo7bo11b2o9bo5bobobobo3b3o2bo2b4o10b3o7bo$o4bob3o8bo3bo3bo12bob2o8bo
11b4o3bo5bo2b4o3bo3bo3bo2b2o3bo8bo4b2o3bobo3b3obo3bobo3bob2o5bo3bo2bo
10bo8bo5bobo5bo2bo4bo$o6bo6bobob2o2b2o9b2o2bo2b4obo4b4o3bo2bob2o8bo3bo
bo3bobo3b2o3bo6bo2bo7b3ob2o5bo4b2o4bobo3bo2b2ob2o3bo6b2o3bo4bob2o9bob
2o2bo2b2o8b3o$o11bob3obo2bo2bo3bo3bo7bo3bo2b2ob2o8bo3b3o2bo3b2obo3bo6b
o2bo3bo3bob2obo4bobo8bobo2bo10bo2b2ob2o8bo4b2o9b2obob2o15bo9b3o$o18bo
3bo5b2o2b2o3bo5bo7b2o10b3o4bo9bo12bo3b2o3bo4bo7b2o9bo8bo4bo6bo6bobo2bo
7b3o3bo2bo5bob2o4bo7bo$o7bobo8bo4bo3bo3bo2bo19bo9b2obo3bo4b2o7bo9bo9bo
10bobobo4b2o9bo2bo11bo3b2o7bo2bo2bob2o3bo3b2o9b2o4bo$o4bo5bo2bo7bob3o
7bobo6bo16bo4b2o3bobo4bo4bo2b2obo3b2obo2b2o22bo2bo5bo3bo3bobo3bo4bob2o
2bobobobo6bob2o7bo6bobobo7bo$o5b2o3bobo3bo2b2o2b3o2bo6bo5bobo3bo6bo2bo
bo2bo4bo5bo3b2o2bo2bo11bo7bo2b2o5bobo10b2o3bo2bob2o2b2o6b2o4bo4bobo4bo
b3obo9b2o4bo8bo$o5bobo2b2obo10bobo5bo4bo6bo5bo2bo10bo7bo4bo3bobob2o2bo
7b3o2bobo6bo7bo2b3o5bo9bo9bo5bobo4bo6bo13bo7b2o4bo$o4b2o9bo3bo9bob3o6b
2o2bo5b4o4bo2bo3bo2bo8bo6bo4bobo8bobo2bo6bob3o4b2o12bo6bo2bo5b3o2bobo
7bo4bo3bo4bo2bo2b2obobobo4bo$o7b3o5b2o5bo3bo6b2o4b2o2bo2bo5bo3bobo6bo
5bo4bo4bob2obo5b3o2bo2bo2bo2bo11b3obo16b2o2bo8bo7bo3bo5bo3bo8bo2bo3bo
2bo4bo$o6bob2o3b3obo18bobo8bobo3bo4b2o11bo3bo2bo8bo3bo3bo8b3o3bob2o9bo
2b4o6b2o6bo4bo4bob2o13bobo3bo4bobobob3ob2o4bo$o4bo9bobo3bo4bo11bo2bo3b
o9bob2o2b3o5bobo2bo3b3o2bob2ob2o3bo2bobo4b3o13bo4bo2b2obo4b2obob2o2bob
o6bo8b4obo5bo3b2o3bo3b2o3bo7bo$o7bo11bobo8bo3b2ob2obobo2b2obo2bo6bo4bo
5bob2o4bo5bo6bo3b2o6b4obo5bo3bobo8bo7bo2bo7bo3bo6b4o5bo2bob2o2bobo5bo
13bo$o4bo3bo5bobo3bo3bo2b2obobobo2bo6b2o5bo4b2obo8bobo10bo2b3obobo3bo
8bo8bo2bobo3bo2bo18b2o20bobo7b2o3bo7bo9bo$o5bo2bob2o16bobo3b2o2b2obo3b
ob2obo2bo2bo4bo3bo2bo2bo4b2ob2o6bo4bo12bo4bo4bo5b2o8b2o4bo6bo3bo14bob
2o6bo4bo5bo3bo9bo$o4b2o2bobobo4bo3bo7bo3bo2bo2bo3bo4bo6bo2b2obob2obo3b
3obobo4bo8bo5bo3b3o2b2obo2bo2b2obob2o7bobo4b2o2bo3b5o3b3o3bo6b2obobo5b
o9bo2bo2b2o5bo$o12bobo6b2o3bo6bo12b2o2bo3bo4bo2bobobo9bobo2bo3bo4b4obo
5b2o5bob2o10bo4bo4bo5bo2b2o3bo12bob2o2bo5bo2b2obo9bo10bo$o6bob2o12bo2b
o4bo7bo2b2o2bo2bo2bo13bo4b2o10bo8bo5bo3bobobo7bobo3bo4bo4bo7bo4bo3bo2b
2o5bobo8bobobobo2bo6bo3bo10bo$o5bob3ob2o4bo8b2o7bo5bo2bo6bo2bo4bo2bo9b
2o4bo4b2o2bo5bo3bo3bobob2o2bo8bo10b3obob2o21bo4bo5bo7bo10b3o7bo$o6bo2b
ob3obo2bob2o6bobo6b2obo3b3ob2o2bo6bo2bo8bo2b2ob2obo11bo4bobo2b2o4bobo
9bo4bo3bobobo6bo2bobo5bobobo2bo3b3o10b2obo13bo5bo$o8bo7bo10bo2bo8bo13b
o10bo9bo2bobobo4bo6b2o4bo3b2obob2o4b3o2bo3bo3bo5bobobo5b2o3bo12bo6bo2b
o3bo9bo2bo9bo$o4bo8b2o7bo2b2obobo3bo5bob2o2b2obobo5b2o13bo2b2obo6b2obo
2b3o4b2o14bo3bo2bo3bobo4bo2b2o2b2o3bo3bo3bobobo3bo5bo3bo7b2o5bo6bo5bo$
o6bo4bo2bo2b3obo2bobo2bo2bo2bo8bobo3bo4bo9bo5bobobobo4bo2b2o6bo12bobo
3bobob2o11bo3bo9bo6bo2b2o2bo9bo4b2o6bo3bo5bo2bo4bo$o8bo3bob3obo8b5o2bo
5bo6bo16b2obo4bo6b3ob3o2bo12bobo2b2obo5b2o3bo5b3o6b2obo8b2o2bo3b2o5bob
o3bo2bo17bo8bo$o9bob2o2b2obo5bo6b4o7bobo7bo3b2ob2obo3bo13bobobob2o2bob
o10bo4b3o2bo4bob2o6bo8b2o5b2o7b2o6bo2bob5o2bob2o3bobo2b2obo4bo4bo$o5b
2obo4bo5b2ob2o3b2o8b2obo6b2ob3o4b2ob2o4b2obob2o3bo2bo6bo3bo3bo10b2o5bo
b2o2bobobo4b3o2bob2o28bo2bo5bo8bo5b4o6bo$o25bobo7bobo8b2o8bo15b5o3b3o
2bobo3bo11b4o2bo2bo2bo2bo2b2o2b3o2bo5bo4bo7b2o8b3o6bo5b2o13bo2bo5bo$o
4bobo10bobo3b2o4bo4bobo5bo17bo5b3o6b2o2bo4bo9bo2bo4bo2bo2bo8bo4bo4b3o
3bobo3bob4o3bo6b3o4bo3b4obobo19bo4bo$o8bo4b2obo5bobo2bo2bo3b3o4bob2o2b
o4bobobo5bo2b2o3b2o4b5obobob3o7bob2obo8bobo2bo7bobo2bo3bo6bo2bo7bob2o
9bo6bo4b5o7bo4bo5bo$o7bo6bobo2bobo6bo2b2o2bo5b2o8bo3bobo5b2obo8bobob2o
4bobobo5bobo10bob2o2bobo11bo11bo4bo3bob2o3bobo5b2o8bob4obobo9bo4bo$o5b
2o2bo4bo5bobo10bo2bo2bobo9b3obo5bo4bobo3bo10b2obo2bo19bob4ob3o3b2o5b2o
bobo3bobo2bo23b2o12bob2o2b2o9bo$o4b2o3bo6bo11b2o8bo2b2o11bo3bob2obo3bo
2bo4bo3bo2bo12bo3bo2bobo3bo13bobobobo2bo4b2o4bo3bo4bobo7bo8bo8bobo3b2o
3bobo5bo$o5bo2b4o2bobo4bobo8bobo3bo2bo3bo2bo4b2o6b2o3bo6b3o2bo6bo4bobo
3b2o3b4o3b2o4b2o24bo2b3obo3bo14bo11bob2o4bo11bo$o4bo4bo3bo4bobo11b2o4b
o2bo7b2ob2o3b2o6bo9bo13bo3bo11b2o4bo3bo5b2o9bo3bo2bo3bob2o3bo11b3o3bo
10bo4bo13bo$o5bo6b2o7bobobo10bo3bobo2bo3bo3bo2bo11bobo2bo4b2obo8bobob
2ob2o2bo12b2o5bobo8bo5bo9bo4bo4bo2b2o7bobo3bo2b4ob2o3bo8bo$o11bo2b2o3b
obob2o2b2obo3bobo3b2o4bo3bo4bo2bo2b2o7bo6bobob3obo9b2o4bo9b2ob2ob2o20b
o10bob2o4bobobo3bo2bo6b2o4bo2bobob2o7bo$o5bobo2b2o4bo20bo5b2o2bobobo3b
2o5bo5bo2bo7b4o5bo6b2o4b2obo9b2o10b2o11bo3b2o2bob2obo9b2o6b5o8bo2bo4b
2o5bo$o4b3o8bo3b2o2bob3o4bo4bo11b2o7bob3o5b2obo2bob2o3bo2b3obo6bo2bo
13bo10bo3b2o7b2o2bo5b4o7b2o7bo4bo2bo6bo3bo5bobo4bo$o10bo4bo4b3o2bobobo
2bobo9bo2bo3bo5bo3bo3bobobo4b3obobo2bo2bo3bo3bo4bo6b2o2b3ob3obobo4bo4b
o7b2o2bobo2b2o2bo4b2o6bo4b2o4b2obo2bobo5bo8bo$o4bo9bo4b2o3bo4bo3bo2bo
4bo7bo2b2o3b2o2bo4bobo3bo2bo4bo4bo3bob2o8b2o6b2o4bo9bo8b2o2bo3bo5b2o4b
o6bobo7bo3b2o2bo6bobo2b3o4bo$o6bobo2bobo10bo4bo3b2ob2o5bo10bob2o19bo5b
o2bo2bo7bo5b2o2b2o5bo7bobo7bo4bo2bo16bo2bo2b2o4bo4bob2o2bo2bo4bob2o6bo
$o5bo13bo12bo5bo3b2o4bobobo3bo4b2o12b2o2bo7bo5bo3bobo3bobobo4b2o3bo3bo
b4o12bo2b2o8bo12bo7bo2bo2bo7bobob2o5bo$o4b2o10bo10bo3b2obo2b2obobo4b2o
10bo2b2o3bo3b2o4bob2ob2o2bo5bo2bob2o2b2o5bo4bo5bo2b5obobo5bo3b2o2bo3b
2o3b2obo5bo3b2obo4bo12bo3bo6bo$o5b2o3b2obobo6bo5bobobobo2bo8bo6b2o13bo
4bo3bobobo5b2obobo13bobo3b3o12b3o2bo2b3o2bo3bobo4bob2o3b2o5bo5bo6bo2bo
bo3bobo8bo$o12bo2bo8bo22bo3bo4bo10bo6bobo6b2o6b2o5bo3bo2bo2bo8bo3bob2o
bobo7b2o13bo4bo5bob2o4bo5bo4bobo7b2o5bo$o5bo5bobo8bo7b4o2b2o12b2o4bo4b
3o3b2o5bo2bob3o5bobob2o3bo4bo5b2obobo2bo4bo15b2o4bobo5bo2bo3bo2bo2b2o
3bo3b4o6bobo3bo9bo$o6bobobo3bo8b2o2bob2o5bo3bo5bo4bo2bo2bo6b2o2b2obo6b
o4b3o7bo3bobo4bobobo3bo3bo6bo2bo6bobo6bo6bobobo3b2o10bo2bo3b2o3bobo5b
2o7bo$o6bo7bo3bobo3bo3b2o4bob2obo8b2o3bo3bo4b2o14bo2b2o3bo4bo4bo3bobob
o3bo3bo10b2o4bo10bobo2bo17bobo3bo2bo12bo7bo4bo$o7b2o9bo3bobo4bo3bo2bo
18b2o2bo3bo19bo2bob2o2bo4bobo4bo3bo4bobo8bo4bo3bobob2o7b2o8bobo10bo4bo
3bo7bobob3o5bo$o8bo8bobo2bobo2bo4bo5bo4bo2bo5bo2bo2bo5b2o2bo4bo6bo2bo
8bo2bobobo9b3o6bo2bob2o8bo5bo11bob2o7b3o3b2o2bo6bo3bo3bo2bo7bo$o7bo5bo
bo3b5o2bob2o5bobobo4bo2bobo7bo9bo3b2o5bo3bo4bo2b2o3bo2bo11bo5bob2o2bo
4bo5b2ob5o3bo2bo2bo2bobo2bob2o2b2o7b2o8bobobo3bo6bo$o7b2o2b2obobo4bo2b
o5bo2b2o6b2ob2obo3bo5bob2obo7bobo2bo3bo5bob3o3bobo3bo5bo3bobo2bobo2bo
3bo9bo6b3obo2bob2o7bo13bo3bobobobobo2b2o2b3o4bo$o8b2o2bobobo3bobo3bo4b
ob2o9bo4bo5b2o13bob3o5bo6bo5bo4bo3bo4bobo14b2ob2o5bo6b2obo2bo4bobobobo
3bo8b2o3bo5bobo3bo9bo$o5bo4bobo5bo6b2o8bo2b2o4b2o5bo6bo2b2o5bobobo12bo
3bob2o4bo4bo5bo2bo10bo6bobob2o2bo3bo4bo20bo2bo4bo2bo2bo2bo5bo7bo$o6b3o
2b2ob3o13b2obo8bo7b2o5bobo4b2o2bobo6b2o6bo5bobo3bobo2bo5bo3b2o2bo3bo4b
5o3b2o6bo5b3o3bo3b3o2bo4bo7bobo2bo2bo2b2o10bo$o8bo5bo3bo14bo7bo9bo2b2o
b2obo9b2o2bo13bo3bobo5b3o3bo17bo11bo5bo3bo4b2o3bo6b2o10bo2bobo2bo2bo
11bo$o4bo4bo10bo5bobobo3bobo2bobo8bo2bobo2bobo4b3o10bo11bobobo4bo2b2o
2b2o4b2o3bo2bo7bo2bo3bo13bo9bobo3b2o5bo2bobob2o2bo3bo2bo2bo4bo$o4bo2bo
3bo2bob2o5b3o5bo4bobo9bo2b3obo4bo6bo6bo5bo3bo10bo4bo11bobo3b2o4bo4bo4b
3o2b2o3bo2bo2bo9b2o12bo6bob2o2b2o9bo$o5bobo2bo3bo8b2obo5b7o3bo2bo10bob
obo2bo3b2o4bo4bo2b2ob2obo9bo2bobo6bobo3bo5bo2b3obo7bobo9bo13bo4bo2bo2b
obo3bo11bobo4bo$o6b2ob3o4b2o6b5ob2o5bobo9bobo3bo10bo4bo8b2o2b2o2bo7bo
8bo2bobo3bo2bo3b2obobo7b2o5b2o6bo4bo4b2o2bo12b2o2bo6bobo8bo$o10bo2bo3b
o9b4o10b2o11bo2bo3bo2b2obo11bo3b2o2bo7b2o4b4o3bo2b3obo3bobo20bo4bobo7b
o7b3o3bo2b2o5b2o15bo$o9bo8bo3bo7bo6bobo5bobo4bo11b2o4bobo5bo2bo2bo5bo
8bo3b3o3bo3bobo3bo2bo3bo5bo12bo9bo3bo4bo15bo11bo5bo$o4bo7bo3bo6bo2bobo
10bo3b2o3b2o2bo5bo5bo2bo3b2o9bo6bo6b2obobobo2bob3o2bobob3obo2bo2bo9b2o
2bo2bo11b3o4bo8b2o9b2o3bo3bo5bo$o6bo8bo4bo4bo3bo4bob4o3b2o3bo2bobo8bob
2o22bo3bo5b4ob3o4bob2o19bo5bobo2b3obo2bo2bobo5b5o6bo2bo3bo11bo5bo$o4bo
2bob2obo2bobo6bo6bo8bo9bobo2bobo2bo3bo2bo2bobo2bo5b3o3bo2bo6b2o3bo2bob
2o2bo6bo8bo4b2o4b2obo5b3o4b2o7b2o3bo6bobo8bo2bo2bo5bo$o4bo4bo12bo2bo2b
3o4bobo6b2obo2b2o12bo5bo12b2o8bo4bo2bobo8bo13b2obobo2bobo6bo5bob2o2bo
2bo3bo5b2ob2obobobo2bo10bo5bo$o5bo2bo15bo3bo7bo5bo2bobo7b3o6bobo18bobo
4bo5bobo6bo5bo3b2o3b2o5b2o2b2o3bo6bobobo3b3o5bo4b3obo2bo6bo12bo4bo$o4b
2o3bobo3bob2o5bo11bo3bo12b2o7b2ob2o4b2ob3obo4bobo5b2o4bo2bob2o5b5o12bo
4bo9bo5bo5bo6b2o4b2o2bobobobo3bobo4bo10bo$o6bo2bo7bo6bob4o14bo3bo4bobo
3b3o8bo2bo7bo4bobo9bobo4b2o4bo2bo5bo2bo8bo6bo4bo3b2o3bo2b2o10bo3b4o2bo
7bo11bo$o11b2o7bo9b2o3b3o4b2ob3o7bo6bobo6b2obo6bob2o2bo3bo3bo2bobobo8b
2o4bo4bo3b2o9bo14bo2bo3bo3b2o2b3o4b4obo11bobo4bo$o9bo14bo3b2obobo8bo4b
3o8bo5bobob4o7bo2b4o5bobo9bo6bo3bo2bo7bob2o4bo3bo2bo2bob2ob2o5bobo4b2o
4b2obo4b2o2bo6bo3bobo4bo$o4b2o2b3o2bo9bo4bobo4bobo2b2o2bo9bob2o2b3obo
2bo2bo2bo3bobo2bo4bo3bo7bo2bo3bo3b2o3b4obo2bobo2bo7b3obo4bo4bo5bo3b2o
6bo2b2o8b3o14bo$o4bo4bo2bob3o8bo7bo3bob2o3b3o2b3o6bo2bo11bo3bo9bo4b3o
2bo8b2o3bobo4b2o6bo4bo5b2ob2ob2o2b2obo3bo3b2o3b2o2bo11b2o2bo4bo9bo$o5b
o2bo4bo7bobo5bobo4bo3bo4bobob2o2bo3bo11bo4b4o6bo3bo7b2o9bo2bobobobo5b
3obo16bobo8bo8bobo3bo4b2o4bo5b2o10bo$o15bo2b4obo3bo18bobo3bo15bo10bo4b
o3bobo2bo4b2o2bo2bobo2bobo5bo4bo3bo2bo3bo11bo4bobo5bo9b4obo9bo5bo7bo$o
16bo5bo2bo3bobo4bo2bo2bob2o2bob2o8b2o4bo3b3o6bobo2bob2o2bo5bo2b2o16bo
9b2o2bobo5b4obobo6bo2b2o11bob2o2b2ob2o2bo2b2ob2o2bo5bo$o6bo6bobo7b2o2b
obo4bo2b2o3bo9b2obo11bo2b3obo3bo3bo2bo3bob2o9b3ob2obo2bob2o3bobo2bo3bo
4bobo8bo6bo3bo6b2obobo3bobo3bobo3bobobobo8bo$o8bo2bobobo9bo4bo10bo2b2o
6bo2b2o6bo6b2o12bo4bo4bo4bo3bo3bo5bo6bo2bobobobo3bo2bo6b3o9bo3bo3bo2bo
3b2o3bo6bo3bo2b2o2bo4bo$o8b2obo6bo2bo3bobo4b2obobo14bo13bo2bo2bo2bo6bo
3bo12bo2bobobo2bobo4b2o2bo9b3o3bo2bo6bo4bo3bo5bo5bo3bo5b2o5bobobo9bo$o
18bo18bo2bo7bo4b2o3bo5bob2o10bo4b2o3b2o12bob2o5bo2b2o3bo2b2o3bo16bob2o
3bo2bo4b2o2bo2bobo3bo2bo12bobobo5bo$o6bo4bo8b2o4bo7b2o13bo8bobo3bobo6b
o2b2o4bo3bo2bo9b2o5bo19bo2bo2b2obobo3bob2o4bo5b3obo4bobo7bo6bobobo2b2o
2bo5bo$o8bo3bo2bo2bo17bo11b2o5bo13bo4bo3bo5bob2o19bo5bo2bob3o6bo4bo4bo
2bo5bo4bo3bo10bo3bo4bo4bo2bobo6bo5bo$o9bo5bo6bo8bo2b3o2bob2o6bo4bobo3b
2o8bo2bo6bobo2bo2bo3b2o26b2o2b2o4bo8bo2bo7bob2o2bobo10bo6b5o5bo11bo$o
4bo6bo5bobo4bo5bobo8bo3bo2bo9b2o7bo4b3o2bob3obo5bo4b2o2bo2b2o10bo9bo2b
o5bo2bo2bo4bo2bo9bobo3b2o8b3o8bo3bo10bo$o5b2o5bo3b3o2b3o3b3o5bo2bo10b
2o2bo5bo2bo2b2o3bobo2bo4bo9bo6b4obob2o2bo4b2o4bo19bo5bo5bo4bo2b2o7bobo
9bo4bo12bo$o4bo13bo5bo4b2o3bo3bo6bob2obo11bo2bo5bo5bo4b2ob2o2bo2b3o10b
o2bo7bo4bo2bobobo2b2o2bo3bo3bobo2bo9bo4bo6bo2bo3bo6bo6bobo4bo$o10bo11b
2ob2o2bo6b2o3bo7b2o4b2o3bo8bo2bo10bo2bo3bob2obobo4bo10bo21bo3bo3bo4bo
4bo2bobo2b2obo3bo2b2o8bo4b2o2b3o5bo$o8bo10b2o2bo4b2o3bo5bo6bo4bo5bo21b
2o7b2obob2o5b2o3bo12bo3bobobo6bobo3bo4b4o3bo3bo9b2obobo2bo2bo2bo18bo$o
5bo2b2o2bo13bobobo3bo6b2o2bo7b3o2bo2b2o5bobobo2b2o7bo11bo2bobobo8b2ob
3o4bobo3b2o3b2o2bo13bo4bo3bo20bo3b2o2bob3o4bo$o6b2o17bobo10bo2b2obo4bo
3b2o13bo12b2o3bo3bo8bo11bo7b2o2bo8b2o7bo6bo5bo4b2o9bo6bo3b2o4bobob3o4b
o$o4bobo3bo3bobo3bobo8b2obo2bo2bo2bo5bo10b2o7bo6bo2b2o3bo11bobo3bo2b2o
8bobo7bo3bo9bo4bo2bo2bo2bo2bobo2b2o2bo11bo3bo6b2o3bo4bo$o4bo5b2o2b2o4b
2o9bo3bo7bo2bo6bo6bo6bobo2bo4bo5bob2obo10bo10bob2o4b2o4b2o2bobobo3bo2b
obobobo18b4obo2bo2bo3b2o3bo4bo2bo5bo$o11bo2bobo8bobobob2o13b2obo8b3o7b
2ob2obo3bo5bobo2bo4b2o8bo9bo2bo8bo2b2o2bo2bo2b2o12bo2bo5b2obo5b3o5bo8b
o9bo$o9b2o14bo10b3o6bo5bo17bobo2bobobobo10bo6b2o3b2o5b3obo2bo2b2o5bo9b
o15bo4b3o5b2o4b3obo3bobo7bo2bo4bo$o9bo19bo7bobo14bo2bobo3b2obob3o7bo4b
2obobo8bobo12bo11bob2o5bo4b2o3bo9bob4o3bo2bo8bo5bo7bobobo5bo$o7bo8bo5b
o5bobo3bo8bo4bo4bob2o2bo5bo3bo6bo2bo2b2o3bo4bobobo2bo5bo4bo6bo3bo5b2o
2bo2bobo8bobo2bobo8bo2bo2bobo6bob2o4bo6bo6bo$o8bo7b2obo8bo13bo4b2o9bo
4b2obobob2obo3b2ob3o3bobobo2b3ob3o2bo2bo6b2o3bo3bo11bo4bo8bo3b2obo2bob
o2bo7bo2bo2b2o5b3ob4o7bo$o5bo2bo10bo3bo2b2o3bo2b3o2bob3o2bo3b3o5b2o3b
2o2b2o6bo14bo3b3o2bo4b2o2bobo2b2o2b4o16b2o2bo4bobo4b3o2bo2bo3bobo9bo7b
2o4b2o5bo$o5b2obo4bo2b2o3b2o5bo3bo4bo6bob2o2bobo7b2o4b2o6b2obo6bo4b3ob
o7b2o7bo13bo3bo3bo3bobo5bo2bo6bo3b3obo5bobo6bobobo8bobo5bo$o7b5obo3bo
4bo5bobob2o3bo3b2obo3bobo5bo2bo2bobo5bo3b2o3bo8bobo6b2o2b2obo9b2o2bo2b
o6bobo3bobo15b2ob2o7bo2bo2bo4bo2bo6b2o3b2obo4bo$o5bo5b2o2bobobo3bo4b2o
4bo7b2o3bobo13bo2b3o10bo2bo3bo5bobo4bo2b2o6bo7bo3bobo2bob2o12bo6bo2bo
2bo8b2obo2bo6bo3bo8bo6bo$o21bo5bo15b2obo3bo4b2o9bobob2o2bob2o3bo3bo8bo
2b2o17b4o7bobobo7bo3bo2b2o4b2o2b2o4bo15b2o6bo4b2o5bo$o5bobo15bo15bo6bo
3bo3bo5bobo6bo5bo4b2o4bo3bob2ob2o22bob2o3bo9bo3b3ob2o6bo2bo3bo6bo2bo2b
o5b2o4bo13bo$o6bo3bo4b2o12b3obo7b2o4bob2o4b5o3bo3bobo4bo5b2o8bo2bo2bo
2bo10bo9bo2bobobo5bobo2bo3bo6bo6bo12bobobo5bo5bo3b2o7bo$o10bo4b2o4bo8b
o10bobo3bo8bobo3bo4bo12bo2bo5bo8bobo2bob2o11b2obo4bo4bo6bo5b2o5b2o2bo
7bo2bobo6b3o2b2o4bo11bo$o5bo3bo4bo3bob3o2bob2obob2obo8bo4bo3bo6bo2b2o
2bo3bo10b2obo6bo2bo20bo2b3obo2bo4bobobo4bo9bobo2bo2b2obo5bo13bo6bo2bo
6bo$o198bo$o198bo$o198bo$o198bo$200o!
